src/assets/icons/ds_mark_d_200-1.svg

<svg height="80.622" viewBox="0 0 62.174 80.622" width="62.174" xmlns="http://www.w3.org/2000/svg" xmlns:xlink="http://www.w3.org/1999/xlink"><linearGradient id="a" gradientUnits="objectBoundingBox" x1=".518" x2="0" y1=".056" y2=".056"><stop offset="0" stop-color="#20154e" stop-opacity="0"/><stop offset="1" stop-color="#20154e"/></linearGradient><path d="m91.986 51.245a32.052 32.052 0 0 0 -25-11.185h-26.916v1.049c0 4.961 3.592 9.323 7.692 9.323h18.411c7.775 0 16.094 3.482 20.65 8.658 4.781 5.324 7.53 13.09 7.526 21.261v.867a32.38 32.38 0 0 0 -6.9-13.773 26.877 26.877 0 0 0 -20.08-8.954h-19.229v1.022c0 4.967 3.592 9.323 7.692 9.323h11.533c11.222 0 20.013 9.108 20.013 20.73a21.218 21.218 0 0 1 -5.038 13.794 18.046 18.046 0 0 1 -11.668 6.419c-5.007.5-21.557.511-21.723.511h-.809v1.055c0 5.3 4.333 9.337 8.081 9.337h11.859a31.612 31.612 0 0 0 23.906-11.182c6.515-7.321 10.258-17.95 10.258-29.129s-3.744-21.812-10.258-29.133z" fill="url(#a)" transform="translate(-40.07 -40.06)"/></svg>

<svg xmlns="http://www.w3.org/2000/svg" xmlns:xlink="http://www.w3.org/1999/xlink" width="62.174" height="80.622" viewBox="0 0 62.174 80.622"><defs><style>.a{fill:url(#a);}</style><linearGradient id="a" x1="0.518" y1="0.056" x2="0" y2="0.056" gradientUnits="objectBoundingBox"><stop offset="0" stop-color="#20154e" stop-opacity="0"/><stop offset="1" stop-color="#20154e"/></linearGradient></defs><path class="a" d="M91.986,51.245a32.052,32.052,0,0,0-25-11.185H40.07v1.049c0,4.961,3.592,9.323,7.692,9.323H66.173c7.775,0,16.094,3.482,20.65,8.658,4.781,5.324,7.53,13.09,7.526,21.261v.867a32.38,32.38,0,0,0-6.9-13.773,26.877,26.877,0,0,0-20.08-8.954H48.14v1.022c0,4.967,3.592,9.323,7.692,9.323H67.365c11.222,0,20.013,9.108,20.013,20.73A21.218,21.218,0,0,1,82.34,103.36a18.046,18.046,0,0,1-11.668,6.419c-5.007.5-21.557.511-21.723.511H48.14v1.055c0,5.3,4.333,9.337,8.081,9.337H68.08A31.612,31.612,0,0,0,91.986,109.5c6.515-7.321,10.258-17.95,10.258-29.129S98.5,58.559,91.986,51.238Z" transform="translate(-40.07 -40.06)"/></svg>
